X:57
T:Lei fielou?
O:France
A:Provence
C:Trad.
R:Danse trad.
S:Carnet du tambourinaire Ginas (1924)
Z:Transcrit et/ou corrig? par Michel BELLON - 2005-03-06
Z:Pour toute observation mailto:galouvielle@free.fr
M:2/4
L:1/8
Q:Allegretto
K:F
f fe/d/ | cB Ac | fa g/f/e/d/ | cBAc | fz FF/G/ | AGAB | Accc | dcBA | \
Gz FF/G/ | AGAB | c2 f/e/f/c/ | d B cc | F |]
<end>
<start>
